X: 1
T: Sk\aalbergsl\aaten
O: Boda, Dalarna, Sweden
S: Bruce Sagan's "scanfolk" session archive [BSsf]
F: https://nordicfiddlesandfeet.org/Allspel/Sk%C3%A5lbergsl%C3%A5ten.pdf 2021-7-12
R: Boda-polska
%S: s:8 b:32(4+4+4+4)
Z: 2021 John Chambers <jc:trillian.mit.edu>
M: 3/4
L: 1/8
K: G
|: "G"(B>A) B2 e>d | (d>B) G2 (G2 | B>A) B2 e>d | "G"(d>B) "Am"c4 |
| "Am"(c>B) c2 d>e | "D"f2 f4 | "D7"A>f f3 c | "G"e2 (d/e/)d/^c/ d>=c |
|  "G"(B>A) B2 e>d | (d>B) G2 (G2 | B>A) B2 e>d | "G"(d>B) "Am"c4 |
| "Am"(c>B) c2 d>e | "D"f2 (f3 e) | d>(B c/d/)c/A/ F>A | "G"G2 G4 :|
|: "G"(D>B) B4 | (D>B) B4 | (3BcB (3ABA (3GAG | "C"(3FGF (E>D) E2 |
| "Am"(E>c) c4 | (E>c) c4 | cB/c/ e>(e "D"d)>d | "G"c2 (B/c/)B/A/ B3G |
|  "G"(D>B) B4 | (D>B) B4 | (3BcB (3ABA (3GAG | "C"(3FGF (E>D) E2 |
| "Am"(c>B) c2 d>e | "D"f2 (f3 e) | d>(B c/d/)c/A/ F>A | "G"G2 G4 :|
